X:1
T: Islay Rant
M: 4/4
L: 1/8
K: Ador
|:"Am"EAAG ABcd|e2 ed eAAf|"G"g2 gf "Em"gABA|"Em"GABG "F"cA"G"BG|
"Am"EAAG ABcd|e2 ed eAAf|"G"g2 gf "Em"gABA|1 "G"GABG "Am"A3 G:|2 "G"GABG "Am"A3 g||
|:"Am"a2 ab aged|eA (3AAA eA"D"fA|"G"g2 gf "Em"gABA|GABG "F"cA"G"BG|
"A"^cA (3AAA cA"D"dA|"A"eA (3AAA "A"eA"D"fA|"G"g2 gf "Em"gABA|1 "G"GABG "Am"A3 g:|2 "G"GABG "Am"A3 G||
